X:212
T:B212-  I live not where I love
S:(1st/3) by Morley, for 1st bk. of Ayres, 1600
Q:1/4=120
L:1/4
M:C|
K:G
BdcB|dAGG|dg^fd|e3/2d/2d2::\
cegG|BdA2|ceBd|A3/2G/2G2:|]

